X:60
T:Les cordelles
O:France
A:Provence
R:Danse trad.
C:Trad.
Z:Transcrit et/ou corrig? par Michel BELLON - 2005-03-06
Z:Pour toute observation mailto:galouvielle@free.fr
M:2/4
L:1/8
K:Bb
A>G Fc | cB A2 | A>G AB | G2 Fz :| ff ee | dd c2 |
cc cd | cB AA/B/ | cc cA/B/ | cc c>z | A>B cc | d2 cz | F>G AB | G2 Fz |]
<end>
<start>
